Obsidian-SemiLight/actions/16s/zoom-2-to-1.svg

<svg viewBox="0 0 16 16" xmlns="http://www.w3.org/2000/svg"><path d="m2 2v1 2h1v-2h2v-1h-2zm9 0v1h2v2h1v-2-1h-1zm-7 2v8h3v-8zm4 2v4l2-2zm3 0v4h2v-4zm-9 5v2 1h1 2v-1h-2v-2zm11 0v2h-2v1h2 1v-1-2z" fill="#4d4d4d"/></svg>

<svg xmlns="http://www.w3.org/2000/svg" viewBox="0 0 16 16">
  <defs id="defs3051">
    <style type="text/css" id="current-color-scheme">
      .ColorScheme-Text {
        color:#4d4d4d;
      }
      </style>
  </defs>
 <path style="fill:currentColor;fill-opacity:1;stroke:none" 
       d="M 2 2 L 2 3 L 2 5 L 3 5 L 3 3 L 5 3 L 5 2 L 3 2 L 2 2 z M 11 2 L 11 3 L 13 3 L 13 5 L 14 5 L 14 3 L 14 2 L 13 2 L 11 2 z M 4 4 L 4 12 L 7 12 L 7 4 L 4 4 z M 8 6 L 8 10 L 10 8 L 8 6 z M 11 6 L 11 10 L 13 10 L 13 6 L 11 6 z M 2 11 L 2 13 L 2 14 L 3 14 L 5 14 L 5 13 L 3 13 L 3 11 L 2 11 z M 13 11 L 13 13 L 11 13 L 11 14 L 13 14 L 14 14 L 14 13 L 14 11 L 13 11 z "
     class="ColorScheme-Text"
     />
</svg>
